src/sponsor_logos/siemens.svg

<svg xmlns="http://www.w3.org/2000/svg" xml:space="preserve" style="fill-rule:evenodd;clip-rule:evenodd;stroke-linejoin:round;stroke-miterlimit:2" viewBox="0 0 807 193"><path d="M0 23.038q-24.091-.001-48.182.005c-.181 0-.223-.041-.222-.223q.008-11.301 0-22.602c-.001-.182.041-.223.222-.223Q0 .003 48.182-.005c.181 0 .222.041.222.223q-.008 11.301 0 22.602c0 .182-.041.223-.222.223Q24.091 23.037 0 23.038" style="fill:#139999;fill-rule:nonzero" transform="translate(403.373 .038)scale(8.33333)"/><path d="M0-4.168q-.267.605-.531 1.212-.426.99-.85 1.983c-.413.967-.822 1.935-1.237 2.901q-.488 1.132-.98 2.263c-.063.146-.148.285-.188.436-.066.254-.213.319-.466.31a39 39 0 0 0-1.815-.002c-.177.002-.26-.049-.33-.225-.389-.977-.8-1.944-1.2-2.916-.359-.869-.71-1.74-1.07-2.609q-.623-1.5-1.252-2.996c-.056-.135-.11-.27-.198-.398v.258c0 2.823-.003 5.646.006 8.469.001.229-.067.276-.281.273a82 82 0 0 0-2.323-.001c-.172.002-.213-.05-.213-.217q.008-6.726 0-13.453c0-.178.041-.23.225-.229q2.324.01 4.646.001c.134 0 .206.029.26.167.382.979.774 1.954 1.168 2.928.465 1.149.935 2.297 1.401 3.446.229.564.452 1.129.682 1.692.026.063.04.141.118.174q.498-1.19 1-2.379c.413-.975.832-1.948 1.245-2.924q.512-1.211 1.02-2.425c.053-.124.124-.243.155-.372.063-.256.214-.313.466-.31 1.411.013 2.823.009 4.234.002.175-.001.232.036.232.223q-.009 6.727 0 13.454c0 .189-.06.223-.233.222a216 216 0 0 0-3.411.001c-.196.002-.237-.058-.237-.243.006-2.815.004-5.63.004-8.445v-.264z" style="fill:#fff;fill-rule:nonzero" transform="translate(402.973 113.413)scale(8.33333)"/><path d="M0-3.549v.261C0-.569-.004 2.149.007 4.867c.001.263-.078.314-.32.309a75 75 0 0 0-2.275-.003c-.157.002-.224-.024-.223-.205q.008-6.74 0-13.479c0-.172.048-.214.216-.214q2.044.01 4.09.002c.132 0 .219.027.287.156.199.378.418.746.624 1.121q1.146 2.095 2.288 4.194c.442.814.878 1.633 1.319 2.448.12.221.252.436.424.649v-.248c0-2.686.003-5.372-.005-8.058-.001-.213.05-.269.264-.265a87 87 0 0 0 2.347.002c.156-.001.205.039.205.2a8682 8682 0 0 0-.001 13.503c0 .142-.03.195-.185.195a544 544 0 0 0-4.041-.002c-.106 0-.172-.023-.226-.124q-.627-1.16-1.266-2.314C2.872 1.549 2.208.368 1.553-.817 1.159-1.531.775-2.252.385-2.968c-.109-.2-.224-.396-.336-.594z" style="fill:#fff;fill-rule:nonzero" transform="translate(589.306 110.213)scale(8.33333)"/><path d="M0-.03c0-2.226.003-4.452-.004-6.679-.001-.194.037-.257.246-.257q4.816.01 9.631 0c.209 0 .251.062.247.257q-.018 1.065.001 2.129c.003.197-.059.237-.243.237-1.864-.007-3.727 0-5.59-.009-.223-.002-.279.058-.276.277q.018 1.247.001 2.493c-.002.189.047.241.239.24 1.597-.008 3.194-.001 4.791-.009.198-.001.26.043.255.249a43 43 0 0 0 0 1.863c.004.205-.037.272-.26.27-1.573-.011-3.146.001-4.719-.013-.263-.002-.311.08-.307.321q.02 1.318 0 2.637c-.003.208.062.249.257.248 1.911-.007 3.823 0 5.735-.01.218-.001.266.058.262.267a72 72 0 0 0-.001 2.226c.003.182-.047.227-.227.227a2463 2463 0 0 0-9.801.002c-.218 0-.241-.078-.241-.263C.002 4.439 0 2.204 0-.03" style="fill:#fff;fill-rule:nonzero" transform="translate(191.215 95.546)scale(8.33333)"/><path d="M0-.019c0-2.226.004-4.453-.006-6.679-.001-.22.061-.262.268-.261q4.792.01 9.583-.001c.223 0 .281.058.276.278a59 59 0 0 0-.001 2.105c.003.189-.047.242-.239.241-1.871-.008-3.742-.002-5.614-.009-.197-.001-.258.043-.255.249q.018 1.247.001 2.492c-.003.205.038.271.26.27 1.589-.011 3.178-.001 4.767-.012.252-.002.313.077.307.317A40 40 0 0 0 9.346.81c.003.184-.051.227-.229.226-1.613-.007-3.227 0-4.84-.01-.213-.001-.268.051-.265.265q.018 1.343.001 2.686c-.003.199.046.255.25.254 1.896-.009 3.791-.002 5.687-.01.206-.001.273.04.269.261-.016.75-.01 1.5-.004 2.25.002.151-.03.208-.196.208q-4.913-.008-9.825.001c-.196 0-.196-.089-.196-.233Q.001 3.345 0-.019" style="fill:#fff;fill-rule:nonzero" transform="translate(461.848 95.496)scale(8.33333)"/><path d="M0 10.492c0-.411.005-.823-.002-1.234-.003-.157.043-.196.197-.148a19 19 0 0 0 2.015.526c.444.084.891.152 1.343.179.151.009.306.027.451.029.706.011 1.417.009 2.048-.392.569-.36.733-1.282-.071-1.772-.564-.344-1.191-.548-1.789-.814-.925-.41-1.883-.747-2.716-1.347C.642 4.92.043 4.146-.175 3.147-.487 1.719-.153.445.962-.556c.705-.633 1.557-.989 2.472-1.195.816-.184 1.645-.226 2.478-.194a18 18 0 0 1 2.059.225c.407.064.81.153 1.217.206.22.029.309.114.304.353A65 65 0 0 0 9.49 1.04c.002.216-.059.236-.25.162A10.7 10.7 0 0 0 6.767.566C6.363.513 5.959.449 5.552.477c-.451.03-.896.093-1.304.317-.707.387-.913 1.122-.09 1.66.519.34 1.106.55 1.658.826.624.313 1.261.601 1.88.924.642.335 1.259.715 1.759 1.25.663.708 1.056 1.525 1.053 2.522-.001.826-.175 1.588-.654 2.269-.67.952-1.616 1.498-2.7 1.842-.508.162-1.03.239-1.559.299-.748.083-1.497.06-2.241.031a13.5 13.5 0 0 1-2.821-.401c-.534-.137-.533-.139-.533-.701z" style="fill:#fff;fill-rule:nonzero" transform="translate(690.14 51.746)scale(8.33333)"/><path d="M0 10.455c0-.411.004-.823-.002-1.234-.002-.141.039-.194.181-.148q1.004.328 2.037.534c.436.087.876.152 1.32.175.192.01.385.04.572.041.556.002 1.108-.044 1.643-.231.662-.232.966-1.017.642-1.535-.195-.312-.495-.497-.817-.637-1.145-.5-2.324-.925-3.43-1.51-1.14-.602-2.007-1.472-2.31-2.763C-.434 2.001-.282.906.471-.051c.769-.979 1.821-1.466 3.004-1.736.859-.196 1.729-.219 2.6-.183.633.025 1.263.119 1.892.218.414.065.825.151 1.24.211.156.023.241.077.237.272-.015.766-.008 1.532-.004 2.299.001.156-.011.215-.197.144A10.7 10.7 0 0 0 6.77.535C6.357.481 5.945.416 5.53.447c-.564.041-1.128.121-1.572.519-.515.462-.439 1.04.194 1.456.519.34 1.108.545 1.659.826.622.317 1.259.604 1.88.924.66.339 1.287.734 1.794 1.284.639.693 1.024 1.495 1.022 2.466-.002.772-.158 1.493-.562 2.157-.361.594-.874 1.026-1.452 1.389-.645.405-1.361.629-2.1.782-1.015.211-2.045.174-3.068.137-1.062-.038-2.112-.222-3.147-.472-.129-.031-.184-.087-.181-.226.008-.411.003-.823.003-1.234" style="fill:#fff;fill-rule:nonzero" transform="translate(27.865 52.005)scale(8.33333)"/><path d="M0-.005c0 2.233-.003 4.467.005 6.7 0 .2-.049.255-.251.253q-1.826-.013-3.653-.001c-.163 0-.219-.035-.219-.21q.007-6.736 0-13.473c0-.169.043-.217.214-.216q1.839.014 3.677-.001c.204-.002.231.072.23.248C-.002-4.472 0-2.238 0-.005" style="fill:#fff;fill-rule:nonzero" transform="translate(164.998 95.438)scale(8.33333)"/></svg>

<?xml version="1.0" encoding="UTF-8" standalone="no"?>
<!DOCTYPE svg PUBLIC "-//W3C//DTD SVG 1.1//EN" "http://www.w3.org/Graphics/SVG/1.1/DTD/svg11.dtd">
<svg width="100%" height="100%" viewBox="0 0 807 193" version="1.1" xmlns="http://www.w3.org/2000/svg" xmlns:xlink="http://www.w3.org/1999/xlink" xml:space="preserve" style="fill-rule:evenodd;clip-rule:evenodd;stroke-linejoin:round;stroke-miterlimit:2;">
    <g transform="matrix(8.33333,0,0,8.33333,-3996.35,-4547.66)">
        <g transform="matrix(1,0,0,1,527.967,545.724)">
            <path d="M0,23.038C-16.061,23.038 -32.121,23.038 -48.182,23.043C-48.363,23.043 -48.405,23.002 -48.404,22.82C-48.399,15.286 -48.399,7.752 -48.404,0.218C-48.405,0.036 -48.363,-0.005 -48.182,-0.005C-16.061,-0 16.061,-0 48.182,-0.005C48.363,-0.005 48.404,0.036 48.404,0.218C48.399,7.752 48.399,15.286 48.404,22.82C48.404,23.002 48.363,23.043 48.182,23.043C32.121,23.038 16.061,23.038 0,23.038" style="fill:rgb(19,153,153);fill-rule:nonzero;"/>
        </g>
        <g transform="matrix(1,0,0,1,527.919,559.329)">
            <path d="M0,-4.168C-0.177,-3.764 -0.356,-3.361 -0.531,-2.956C-0.816,-2.296 -1.098,-1.634 -1.381,-0.973C-1.794,-0.006 -2.203,0.962 -2.618,1.928C-2.942,2.683 -3.271,3.437 -3.598,4.191C-3.661,4.337 -3.746,4.476 -3.786,4.627C-3.852,4.881 -3.999,4.946 -4.252,4.937C-4.856,4.918 -5.462,4.926 -6.067,4.935C-6.244,4.937 -6.327,4.886 -6.397,4.71C-6.786,3.733 -7.197,2.766 -7.597,1.794C-7.956,0.925 -8.307,0.054 -8.667,-0.815C-9.081,-1.815 -9.501,-2.813 -9.919,-3.811C-9.975,-3.946 -10.029,-4.081 -10.117,-4.209L-10.117,-3.951C-10.117,-1.128 -10.12,1.695 -10.111,4.518C-10.11,4.747 -10.178,4.794 -10.392,4.791C-11.166,4.778 -11.941,4.781 -12.715,4.79C-12.887,4.792 -12.928,4.74 -12.928,4.573C-12.923,0.089 -12.923,-4.396 -12.928,-8.88C-12.928,-9.058 -12.887,-9.11 -12.703,-9.109C-11.154,-9.102 -9.605,-9.103 -8.057,-9.108C-7.923,-9.108 -7.851,-9.079 -7.797,-8.941C-7.415,-7.962 -7.023,-6.987 -6.629,-6.013C-6.164,-4.864 -5.694,-3.716 -5.228,-2.567C-4.999,-2.003 -4.776,-1.438 -4.546,-0.875C-4.52,-0.812 -4.506,-0.734 -4.428,-0.701C-4.095,-1.494 -3.763,-2.288 -3.428,-3.08C-3.015,-4.055 -2.596,-5.028 -2.183,-6.004C-1.841,-6.811 -1.503,-7.62 -1.163,-8.429C-1.11,-8.553 -1.039,-8.672 -1.008,-8.801C-0.945,-9.057 -0.794,-9.114 -0.542,-9.111C0.869,-9.098 2.281,-9.102 3.692,-9.109C3.867,-9.11 3.924,-9.073 3.924,-8.886C3.918,-4.401 3.918,0.083 3.924,4.568C3.924,4.757 3.864,4.791 3.691,4.79C2.554,4.782 1.417,4.781 0.28,4.791C0.084,4.793 0.043,4.733 0.043,4.548C0.049,1.733 0.047,-1.082 0.047,-3.897L0.047,-4.161L0,-4.168Z" style="fill:white;fill-rule:nonzero;"/>
        </g>
        <g transform="matrix(1,0,0,1,550.279,558.945)">
            <path d="M0,-3.549L0,-3.288C0,-0.569 -0.004,2.149 0.007,4.867C0.008,5.13 -0.071,5.181 -0.313,5.176C-1.071,5.16 -1.829,5.166 -2.588,5.173C-2.745,5.175 -2.812,5.149 -2.811,4.968C-2.806,0.475 -2.806,-4.018 -2.811,-8.511C-2.811,-8.683 -2.763,-8.725 -2.595,-8.725C-1.232,-8.718 0.131,-8.719 1.495,-8.723C1.627,-8.723 1.714,-8.696 1.782,-8.567C1.981,-8.189 2.2,-7.821 2.406,-7.446C3.17,-6.049 3.933,-4.651 4.694,-3.252C5.136,-2.438 5.572,-1.619 6.013,-0.804C6.133,-0.583 6.265,-0.368 6.437,-0.155L6.437,-0.403C6.437,-3.089 6.44,-5.775 6.432,-8.461C6.431,-8.674 6.482,-8.73 6.696,-8.726C7.478,-8.712 8.261,-8.717 9.043,-8.724C9.199,-8.725 9.248,-8.685 9.248,-8.524C9.244,-4.023 9.244,0.478 9.247,4.979C9.247,5.121 9.217,5.174 9.062,5.174C7.715,5.167 6.368,5.169 5.021,5.172C4.915,5.172 4.849,5.149 4.795,5.048C4.377,4.274 3.955,3.503 3.529,2.734C2.872,1.549 2.208,0.368 1.553,-0.817C1.159,-1.531 0.775,-2.252 0.385,-2.968C0.276,-3.168 0.161,-3.364 0.049,-3.562C0.033,-3.557 0.016,-3.553 0,-3.549" style="fill:white;fill-rule:nonzero;"/>
        </g>
        <g transform="matrix(1,0,0,1,502.508,557.185)">
            <path d="M0,-0.03C0,-2.256 0.003,-4.482 -0.004,-6.709C-0.005,-6.903 0.033,-6.966 0.242,-6.966C3.453,-6.959 6.663,-6.959 9.873,-6.966C10.082,-6.966 10.124,-6.904 10.12,-6.709C10.109,-5.999 10.108,-5.289 10.121,-4.58C10.124,-4.383 10.062,-4.343 9.878,-4.343C8.014,-4.35 6.151,-4.343 4.288,-4.352C4.065,-4.354 4.009,-4.294 4.012,-4.075C4.025,-3.244 4.023,-2.413 4.013,-1.582C4.011,-1.393 4.06,-1.341 4.252,-1.342C5.849,-1.35 7.446,-1.343 9.043,-1.351C9.241,-1.352 9.303,-1.308 9.298,-1.102C9.284,-0.481 9.285,0.141 9.298,0.761C9.302,0.966 9.261,1.033 9.038,1.031C7.465,1.02 5.892,1.032 4.319,1.018C4.056,1.016 4.008,1.098 4.012,1.339C4.026,2.218 4.025,3.097 4.012,3.976C4.009,4.184 4.074,4.225 4.269,4.224C6.18,4.217 8.092,4.224 10.004,4.214C10.222,4.213 10.27,4.272 10.266,4.481C10.253,5.223 10.255,5.965 10.265,6.707C10.268,6.889 10.218,6.934 10.038,6.934C6.771,6.929 3.504,6.928 0.237,6.936C0.019,6.936 -0.004,6.858 -0.004,6.673C0.002,4.439 0,2.204 0,-0.03" style="fill:white;fill-rule:nonzero;"/>
        </g>
        <g transform="matrix(1,0,0,1,534.984,557.179)">
            <path d="M0,-0.019C0,-2.245 0.004,-4.472 -0.006,-6.698C-0.007,-6.918 0.055,-6.96 0.262,-6.959C3.457,-6.952 6.651,-6.952 9.845,-6.96C10.068,-6.96 10.126,-6.902 10.121,-6.682C10.107,-5.981 10.109,-5.278 10.12,-4.577C10.123,-4.388 10.073,-4.335 9.881,-4.336C8.01,-4.344 6.139,-4.338 4.267,-4.345C4.07,-4.346 4.009,-4.302 4.012,-4.096C4.025,-3.265 4.024,-2.434 4.013,-1.604C4.01,-1.399 4.051,-1.333 4.273,-1.334C5.862,-1.345 7.451,-1.335 9.04,-1.346C9.292,-1.348 9.353,-1.269 9.347,-1.029C9.331,-0.416 9.334,0.197 9.346,0.81C9.349,0.994 9.295,1.037 9.117,1.036C7.504,1.029 5.89,1.036 4.277,1.026C4.064,1.025 4.009,1.077 4.012,1.291C4.025,2.186 4.024,3.082 4.013,3.977C4.01,4.176 4.059,4.232 4.263,4.231C6.159,4.222 8.054,4.229 9.95,4.221C10.156,4.22 10.223,4.261 10.219,4.482C10.203,5.232 10.209,5.982 10.215,6.732C10.217,6.883 10.185,6.94 10.019,6.94C6.744,6.935 3.469,6.935 0.194,6.941C-0.002,6.941 -0.002,6.852 -0.002,6.708C0.001,4.466 0,2.223 0,-0.019" style="fill:white;fill-rule:nonzero;"/>
        </g>
        <g transform="matrix(1,0,0,1,562.379,551.929)">
            <path d="M0,10.492C0,10.081 0.005,9.669 -0.002,9.258C-0.005,9.101 0.041,9.062 0.195,9.11C0.859,9.315 1.526,9.506 2.21,9.636C2.654,9.72 3.101,9.788 3.553,9.815C3.704,9.824 3.859,9.842 4.004,9.844C4.71,9.855 5.421,9.853 6.052,9.452C6.621,9.092 6.785,8.17 5.981,7.68C5.417,7.336 4.79,7.132 4.192,6.866C3.267,6.456 2.309,6.119 1.476,5.519C0.642,4.92 0.043,4.146 -0.175,3.147C-0.487,1.719 -0.153,0.445 0.962,-0.556C1.667,-1.189 2.519,-1.545 3.434,-1.751C4.25,-1.935 5.079,-1.977 5.912,-1.945C6.603,-1.918 7.287,-1.826 7.971,-1.72C8.378,-1.656 8.781,-1.567 9.188,-1.514C9.408,-1.485 9.497,-1.4 9.492,-1.161C9.476,-0.428 9.481,0.306 9.49,1.04C9.492,1.256 9.431,1.276 9.24,1.202C8.441,0.896 7.619,0.675 6.767,0.566C6.363,0.513 5.959,0.449 5.552,0.477C5.101,0.507 4.656,0.57 4.248,0.794C3.541,1.181 3.335,1.916 4.158,2.454C4.677,2.794 5.264,3.004 5.816,3.28C6.44,3.593 7.077,3.881 7.696,4.204C8.338,4.539 8.955,4.919 9.455,5.454C10.118,6.162 10.511,6.979 10.508,7.976C10.507,8.802 10.333,9.564 9.854,10.245C9.184,11.197 8.238,11.743 7.154,12.087C6.646,12.249 6.124,12.326 5.595,12.386C4.847,12.469 4.098,12.446 3.354,12.417C2.404,12.379 1.458,12.254 0.533,12.016C-0.001,11.879 0,11.877 0,11.315L0,10.492" style="fill:white;fill-rule:nonzero;"/>
        </g>
        <g transform="matrix(1,0,0,1,482.906,551.96)">
            <path d="M0,10.455C0,10.044 0.004,9.632 -0.002,9.221C-0.004,9.08 0.037,9.027 0.179,9.073C0.848,9.291 1.527,9.47 2.216,9.607C2.652,9.694 3.092,9.759 3.536,9.782C3.728,9.792 3.921,9.822 4.108,9.823C4.664,9.825 5.216,9.779 5.751,9.592C6.413,9.36 6.717,8.575 6.393,8.057C6.198,7.745 5.898,7.56 5.576,7.42C4.431,6.92 3.252,6.495 2.146,5.91C1.006,5.308 0.139,4.438 -0.164,3.147C-0.434,2.001 -0.282,0.906 0.471,-0.051C1.24,-1.03 2.292,-1.517 3.475,-1.787C4.334,-1.983 5.204,-2.006 6.075,-1.97C6.708,-1.945 7.338,-1.851 7.967,-1.752C8.381,-1.687 8.792,-1.601 9.207,-1.541C9.363,-1.518 9.448,-1.464 9.444,-1.269C9.429,-0.503 9.436,0.263 9.44,1.03C9.441,1.186 9.429,1.245 9.243,1.174C8.444,0.867 7.622,0.645 6.77,0.535C6.357,0.481 5.945,0.416 5.53,0.447C4.966,0.488 4.402,0.568 3.958,0.966C3.443,1.428 3.519,2.006 4.152,2.422C4.671,2.762 5.26,2.967 5.811,3.248C6.433,3.565 7.07,3.852 7.691,4.172C8.351,4.511 8.978,4.906 9.485,5.456C10.124,6.149 10.509,6.951 10.507,7.922C10.505,8.694 10.349,9.415 9.945,10.079C9.584,10.673 9.071,11.105 8.493,11.468C7.848,11.873 7.132,12.097 6.393,12.25C5.378,12.461 4.348,12.424 3.325,12.387C2.263,12.349 1.213,12.165 0.178,11.915C0.049,11.884 -0.006,11.828 -0.003,11.689C0.005,11.278 0,10.866 0,10.455" style="fill:white;fill-rule:nonzero;"/>
        </g>
        <g transform="matrix(1,0,0,1,499.362,557.172)">
            <path d="M0,-0.005C0,2.228 -0.003,4.462 0.005,6.695C0.005,6.895 -0.044,6.95 -0.246,6.948C-1.464,6.938 -2.681,6.94 -3.899,6.947C-4.062,6.947 -4.118,6.912 -4.118,6.737C-4.113,2.246 -4.113,-2.245 -4.118,-6.736C-4.118,-6.905 -4.075,-6.953 -3.904,-6.952C-2.678,-6.944 -1.453,-6.942 -0.227,-6.953C-0.023,-6.955 0.004,-6.881 0.003,-6.705C-0.002,-4.472 0,-2.238 0,-0.005" style="fill:white;fill-rule:nonzero;"/>
        </g>
    </g>
</svg>
